Icons/com_adobe_reader.svg

<svg viewBox="0 0 48 48" xmlns:xlink="http://www.w3.org/1999/xlink">
 <defs>
  <linearGradient id="0">
   <stop stop-opacity="0"/>
   <stop offset="1"/>
  </linearGradient>
  <linearGradient xlink:href="#0" id="1" gradientUnits="userSpaceOnUse" gradientTransform="translate(4e-7,-48)" y1="47" x2="0" y2="1"/>
  <clipPath id="2">
   <g transform="translate(0,-1004.3622)">
    <rect rx="4" y="1005.36" x="1" height="46" width="46" fill="#1890d0"/>
   </g>
  </clipPath>
  <clipPath id="3">
   <g transform="translate(0,-1004.3622)">
    <rect rx="4" y="1005.36" x="1" height="46" width="46" fill="#1890d0"/>
   </g>
  </clipPath>
 </defs>
 <g>
  <g transform="translate(0,-1004.3622)">
   <path d="m 5,1006.3622 c -2.216,0 -4,1.784 -4,4 l 0,37.25 c 0,2.216 1.784,4 4,4 l 38,0 c 2.216,0 4,-1.784 4,-4 l 0,-37.25 c 0,-2.216 -1.784,-4 -4,-4 l -38,0 z m -4,41.5 0,0.5 c 0,2.216 1.784,4 4,4 l 38,0 c 2.216,0 4,-1.784 4,-4 l 0,-0.5 c 0,2.216 -1.784,4 -4,4 l -38,0 c -2.216,0 -4,-1.784 -4,-4 z" opacity="0.02"/>
   <path d="m 1,1047.6122 0,0.25 c 0,2.216 1.784,4 4,4 l 38,0 c 2.216,0 4,-1.784 4,-4 l 0,-0.25 c 0,2.216 -1.784,4 -4,4 l -38,0 c -2.216,0 -4,-1.784 -4,-4 z" opacity="0.05"/>
   <rect width="46" height="46" x="1" y="1005.61" rx="4" opacity="0.1"/>
  </g>
 </g>
 <g>
  <g transform="translate(0,-1004.3622)">
   <rect rx="4" y="1005.36" x="1" height="46" width="46" fill="#c34545"/>
  </g>
 </g>
 <g>
  <rect transform="scale(1,-1)" width="46" height="46" x="1" y="-46.998" rx="4" opacity="0.1" fill="url(#1)"/>
 </g>
 <g>
  <g clip-path="url(#2)">
   <g opacity="0.1">
    <g>
     <path d="M 36.882812 27.625 C 36.597656 27.089844 36.15625 26.648438 32.523438 26.757812 C 31.289062 26.792969 30.445312 26.835938 29.738281 26.898438 C 28.449219 26.160156 27.179688 25.21875 26.210938 24.0625 C 25.101562 22.734375 24.417969 21.199219 23.976562 19.691406 C 24.667969 16.609375 24.570312 14.550781 24.539062 14.109375 C 24.535156 14.050781 24.53125 14.015625 24.53125 14.015625 C 24.53125 14.015625 24.527344 14.027344 24.527344 14.027344 C 24.484375 13.726562 24.3125 12.621094 23.964844 12.273438 C 23.558594 11.875 23.203125 11.867188 22.796875 12.558594 C 22.394531 13.25 22.210938 15.179688 22.542969 17.035156 C 22.648438 17.636719 22.871094 18.5 23.171875 19.445312 C 22.925781 20.328125 22.652344 21.253906 22.359375 22.171875 C 21.441406 25.03125 19.777344 27.976562 18.367188 30.253906 C 18.109375 30.335938 16.488281 30.917969 14.503906 32.652344 C 12.339844 34.546875 13 35.496094 13.511719 35.785156 C 14.027344 36.078125 15.457031 37.207031 20.339844 28.796875 C 22.046875 25.851562 23.066406 23.167969 23.675781 20.910156 C 24.277344 22.496094 25.050781 24.109375 25.917969 25.117188 C 26.523438 25.820312 27.347656 26.488281 28.265625 27.082031 C 27.496094 27.207031 26.648438 27.378906 25.296875 27.628906 C 21.957031 28.25 20.304688 29.597656 20.304688 29.597656 C 20.304688 29.597656 24.789062 28.152344 29.214844 27.652344 C 30.636719 28.4375 32.175781 29.039062 33.480469 29.304688 C 35.976562 29.816406 36.738281 28.621094 36.738281 28.621094 C 36.832031 28.511719 37.175781 28.074219 36.882812 27.625 Z M 36.882812 27.625 "/>
    </g>
   </g>
  </g>
 </g>
 <g>
  <g clip-path="url(#3)">
   <g transform="translate(0,-1)">
    <g>
     <path d="M 36.882812 27.625 C 36.597656 27.089844 36.15625 26.648438 32.523438 26.757812 C 31.289062 26.792969 30.445312 26.835938 29.738281 26.898438 C 28.449219 26.160156 27.179688 25.21875 26.210938 24.0625 C 25.101562 22.734375 24.417969 21.199219 23.976562 19.691406 C 24.667969 16.609375 24.570312 14.550781 24.539062 14.109375 C 24.535156 14.050781 24.53125 14.015625 24.53125 14.015625 C 24.53125 14.015625 24.527344 14.027344 24.527344 14.027344 C 24.484375 13.726562 24.3125 12.621094 23.964844 12.273438 C 23.558594 11.875 23.203125 11.867188 22.796875 12.558594 C 22.394531 13.25 22.210938 15.179688 22.542969 17.035156 C 22.648438 17.636719 22.871094 18.5 23.171875 19.445312 C 22.925781 20.328125 22.652344 21.253906 22.359375 22.171875 C 21.441406 25.03125 19.777344 27.976562 18.367188 30.253906 C 18.109375 30.335938 16.488281 30.917969 14.503906 32.652344 C 12.339844 34.546875 13 35.496094 13.511719 35.785156 C 14.027344 36.078125 15.457031 37.207031 20.339844 28.796875 C 22.046875 25.851562 23.066406 23.167969 23.675781 20.910156 C 24.277344 22.496094 25.050781 24.109375 25.917969 25.117188 C 26.523438 25.820312 27.347656 26.488281 28.265625 27.082031 C 27.496094 27.207031 26.648438 27.378906 25.296875 27.628906 C 21.957031 28.25 20.304688 29.597656 20.304688 29.597656 C 20.304688 29.597656 24.789062 28.152344 29.214844 27.652344 C 30.636719 28.4375 32.175781 29.039062 33.480469 29.304688 C 35.976562 29.816406 36.738281 28.621094 36.738281 28.621094 C 36.832031 28.511719 37.175781 28.074219 36.882812 27.625 Z M 36.882812 27.625 " fill="#ffffff"/>
    </g>
   </g>
  </g>
 </g>
 <g>
  <g transform="translate(0,-1004.3622)">
   <path d="m 1,1043.3622 0,4 c 0,2.216 1.784,4 4,4 l 38,0 c 2.216,0 4,-1.784 4,-4 l 0,-4 c 0,2.216 -1.784,4 -4,4 l -38,0 c -2.216,0 -4,-1.784 -4,-4 z" opacity="0.1"/>
  </g>
 </g>
</svg>

<svg viewBox="0 0 48 48"><defs><linearGradient id="linearGradient3764" x1="1" x2="47" gradientUnits="userSpaceOnUse" gradientTransform="translate(-48.000001,0.00221467)"><stop stop-color="#b93b3b" stop-opacity="1"/><stop offset="1" stop-color="#c34545" stop-opacity="1"/></linearGradient><clipPath id="clipPath-713677626"><g transform="translate(0,-1004.3622)"><rect rx="4" y="1005.36" x="1" height="46" width="46" fill="#1890d0"/></g></clipPath><clipPath id="clipPath-741824360"><g transform="translate(0,-1004.3622)"><rect rx="4" y="1005.36" x="1" height="46" width="46" fill="#1890d0"/></g></clipPath></defs><g><path d="m 1 43 l 0 0.25 c 0 2.216 1.784 4 4 4 l 38 0 c 2.216 0 4 -1.784 4 -4 l 0 -0.25 c 0 2.216 -1.784 4 -4 4 l -38 0 c -2.216 0 -4 -1.784 -4 -4 z m 0 0.5 l 0 0.5 c 0 2.216 1.784 4 4 4 l 38 0 c 2.216 0 4 -1.784 4 -4 l 0 -0.5 c 0 2.216 -1.784 4 -4 4 l -38 0 c -2.216 0 -4 -1.784 -4 -4 z" opacity="0.02"/><path d="m 1 43.25 l 0 0.25 c 0 2.216 1.784 4 4 4 l 38 0 c 2.216 0 4 -1.784 4 -4 l 0 -0.25 c 0 2.216 -1.784 4 -4 4 l -38 0 c -2.216 0 -4 -1.784 -4 -4 z" opacity="0.05"/><path d="m 1 43 l 0 0.25 c 0 2.216 1.784 4 4 4 l 38 0 c 2.216 0 4 -1.784 4 -4 l 0 -0.25 c 0 2.216 -1.784 4 -4 4 l -38 0 c -2.216 0 -4 -1.784 -4 -4 z" opacity="0.1"/></g><g><rect width="46" height="46" x="-47" y="1" rx="4" transform="matrix(0,-1,1,0,0,0)" fill="url(#linearGradient3764)" fill-opacity="1"/></g><g><g clip-path="url(#clipPath-713677626)"><g opacity="0.1"><!-- color: #c34545 --><g><path d="m 36.883 27.625 c -0.285 -0.535 -0.727 -0.977 -4.359 -0.867 c -1.234 0.035 -2.078 0.078 -2.785 0.141 c -1.289 -0.738 -2.559 -1.68 -3.527 -2.836 c -1.109 -1.328 -1.793 -2.863 -2.234 -4.371 c 0.691 -3.082 0.594 -5.141 0.563 -5.582 c -0.004 -0.059 -0.008 -0.094 -0.008 -0.094 c 0 0 -0.004 0.012 -0.004 0.012 c -0.043 -0.301 -0.215 -1.406 -0.563 -1.754 c -0.406 -0.398 -0.762 -0.406 -1.168 0.285 c -0.402 0.691 -0.586 2.621 -0.254 4.477 c 0.105 0.602 0.328 1.465 0.629 2.41 c -0.246 0.883 -0.52 1.809 -0.813 2.727 c -0.918 2.859 -2.582 5.805 -3.992 8.08 c -0.258 0.082 -1.879 0.664 -3.863 2.398 c -2.164 1.895 -1.504 2.844 -0.992 3.133 c 0.516 0.293 1.945 1.422 6.828 -6.988 c 1.707 -2.945 2.727 -5.629 3.336 -7.887 c 0.602 1.586 1.375 3.199 2.242 4.207 c 0.605 0.703 1.43 1.371 2.348 1.965 c -0.77 0.125 -1.617 0.297 -2.969 0.547 c -3.34 0.621 -4.992 1.969 -4.992 1.969 c 0 0 4.484 -1.445 8.91 -1.945 c 1.422 0.785 2.961 1.387 4.266 1.652 c 2.496 0.512 3.258 -0.684 3.258 -0.684 c 0.094 -0.109 0.438 -0.547 0.145 -0.996 m 0 0" fill="#000"/></g></g></g></g><g><g clip-path="url(#clipPath-741824360)"><g transform="translate(0,-1)"><!-- color: #c34545 --><g><path d="m 36.883 27.625 c -0.285 -0.535 -0.727 -0.977 -4.359 -0.867 c -1.234 0.035 -2.078 0.078 -2.785 0.141 c -1.289 -0.738 -2.559 -1.68 -3.527 -2.836 c -1.109 -1.328 -1.793 -2.863 -2.234 -4.371 c 0.691 -3.082 0.594 -5.141 0.563 -5.582 c -0.004 -0.059 -0.008 -0.094 -0.008 -0.094 c 0 0 -0.004 0.012 -0.004 0.012 c -0.043 -0.301 -0.215 -1.406 -0.563 -1.754 c -0.406 -0.398 -0.762 -0.406 -1.168 0.285 c -0.402 0.691 -0.586 2.621 -0.254 4.477 c 0.105 0.602 0.328 1.465 0.629 2.41 c -0.246 0.883 -0.52 1.809 -0.813 2.727 c -0.918 2.859 -2.582 5.805 -3.992 8.08 c -0.258 0.082 -1.879 0.664 -3.863 2.398 c -2.164 1.895 -1.504 2.844 -0.992 3.133 c 0.516 0.293 1.945 1.422 6.828 -6.988 c 1.707 -2.945 2.727 -5.629 3.336 -7.887 c 0.602 1.586 1.375 3.199 2.242 4.207 c 0.605 0.703 1.43 1.371 2.348 1.965 c -0.77 0.125 -1.617 0.297 -2.969 0.547 c -3.34 0.621 -4.992 1.969 -4.992 1.969 c 0 0 4.484 -1.445 8.91 -1.945 c 1.422 0.785 2.961 1.387 4.266 1.652 c 2.496 0.512 3.258 -0.684 3.258 -0.684 c 0.094 -0.109 0.438 -0.547 0.145 -0.996 m 0 0" fill="#fff"/></g></g></g></g><g><g transform="translate(0,-1004.3622)"><path d="m 1 1043.36 0 4 c 0 2.216 1.784 4 4 4 l 38 0 c 2.216 0 4 -1.784 4 -4 l 0 -4 c 0 2.216 -1.784 4 -4 4 l -38 0 c -2.216 0 -4 -1.784 -4 -4 z" opacity="0.1"/></g></g></svg>
